.local/share/icons/Gruvbox-Plus-Dark/status/symbolic/user-status-pending-symbolic.svg

<svg width="16" height="16" version="1.1" xmlns="http://www.w3.org/2000/svg">
  <defs>
    <style id="current-color-scheme" type="text/css">.ColorScheme-Text { color:#ebdbb2; } .ColorScheme-Highlight { color:#458588; } .ColorScheme-NeutralText { color:#fe8019; } .ColorScheme-PositiveText { color:#689d6a; } .ColorScheme-NegativeText { color:#fb4934; }</style>
  </defs>
  <path class="ColorScheme-Text" fill="currentColor" d="m3 6c-1.11 0-2 0.89-2 2 0 1.1 0.89 2 2 2s2-0.9 2-2c0-1.11-0.89-2-2-2zm5 0c-1.11 0-2 0.89-2 2 0 1.1 0.89 2 2 2s2-0.9 2-2c0-1.11-0.89-2-2-2zm5 0c-1.11 0-2 0.89-2 2 0 1.1 0.89 2 2 2s2-0.9 2-2c0-1.11-0.89-2-2-2z"/>
  <path class="ColorScheme-Text" fill="currentColor" d="m8 1c-1.933-4.8e-6 -3.5 1.567-3.5 3.5 1.3e-6 0.1704 0.01554 0.3362 0.03906 0.5h6.922c0.02352-0.1638 0.03906-0.3296 0.03906-0.5 0-1.933-1.567-3.5-3.5-3.5zm-4.932 9.93c-1.105 1.043-1.862 2.449-2.068 4.07h14c-0.2061-1.621-0.9629-3.027-2.068-4.07h-9.863z" opacity=".3"/>
</svg>

<svg xmlns="http://www.w3.org/2000/svg" width="16" height="16" version="1.1">
 <path style="fill:#ebdbb2" d="M 3,6 C 1.89,6 1,6.89 1,8 1,9.1 1.89,10 3,10 4.11,10 5,9.1 5,8 5,6.89 4.11,6 3,6 Z M 8,6 C 6.89,6 6,6.89 6,8 6,9.1 6.89,10 8,10 9.11,10 10,9.1 10,8 10,6.89 9.11,6 8,6 Z M 13,6 C 11.89,6 11,6.89 11,8 11,9.1 11.89,10 13,10 14.11,10 15,9.1 15,8 15,6.89 14.11,6 13,6 Z"/>
 <path style="opacity:0.3;fill:#ebdbb2" d="M 8,2 C 6.34,2 5,3.34 5,5 5,5 5,5 5,5 H 11 C 11,5 11,5 11,5 11,3.34 9.66,2 8,2 Z M 3.84,11 C 2.01,12.19 2,14 2,14 V 15 H 14 V 14 C 14,14 13.99,12.19 12.16,11 Z"/>
</svg>
